src/data/flags/kyoto.svg

<svg xmlns="http://www.w3.org/2000/svg" width="1400" height="1000"><path fill="#942b9d" d="M0 0h1400v1000H0z"/><g transform="matrix(.33333 0 0 .33333 700 500)"><path d="M-842.178 486.231s80.862-36.162 221.018 30.312c140.146 66.474 207.516 71.351 318.854 7.067-.004 128.563 37.906 184.47 165.548 272.602C-9.113 884.354 0 972.463 0 972.463s9.113-88.11 136.758-176.251C264.4 708.08 302.31 652.173 302.306 523.61c111.338 64.284 178.708 59.407 318.854-7.067 140.157-66.475 221.018-30.312 221.018-30.312s-71.749-51.947-84.259-206.561C745.415 125.062 715.953 64.278 604.612 0c111.341-64.278 140.803-125.062 153.307-279.67 12.51-154.614 84.259-206.561 84.259-206.561s-80.862 36.162-221.018-30.312c-140.146-66.474-207.516-71.351-318.854-7.067.004-128.563-37.906-184.47-165.548-272.602C9.113-884.354 0-972.463 0-972.463s-9.113 88.109-136.758 176.251C-264.4-708.08-302.31-652.173-302.306-523.61c-111.338-64.284-178.708-59.407-318.854 7.067-140.157 66.475-221.018 30.312-221.018 30.312s71.749 51.947 84.259 206.561C-745.415-125.062-715.953-64.278-604.612 0c-111.341 64.278-140.803 125.062-153.307 279.67-12.51 154.614-84.259 206.561-84.259 206.561z" fill="#fff"/><path d="M-631.728 364.728c-70.554-122.173 28.883-240.317 78.605-269.026 49.724-28.71 108.784-49.83 149.175-53.587 42.294-3.931 76.349-15.257 76.346-42.115.003-26.858-34.052-38.184-76.346-42.115-40.391-3.757-99.451-24.876-149.175-53.587-49.722-28.709-149.159-146.853-78.605-269.026 70.527-122.188 222.562-95.146 272.286-66.44 49.726 28.706 97.547 69.295 120.995 102.395 24.552 34.662 51.388 58.493 74.646 45.061 23.261-13.426 16.041-48.581-1.701-87.176-16.942-36.857-28.181-98.565-28.179-155.982.001-57.414 52.599-202.603 193.681-202.587 141.082-.016 193.68 145.173 193.681 202.587.002 57.417-11.237 119.125-28.179 155.982-17.742 38.595-24.962 73.75-1.701 87.176 23.258 13.432 50.094-10.399 74.646-45.061 23.448-33.1 71.269-73.689 120.995-102.395 49.724-28.706 201.759-55.748 272.286 66.44 70.554 122.173-28.883 240.317-78.605 269.026-49.724 28.71-108.784 49.83-149.175 53.587C361.654-38.184 327.599-26.858 327.602 0c-.003 26.858 34.052 38.184 76.346 42.115 40.391 3.757 99.451 24.876 149.175 53.587 49.722 28.709 149.159 146.853 78.605 269.026-70.527 122.188-222.562 95.146-272.286 66.44-49.726-28.706-97.547-69.295-120.995-102.395-24.552-34.662-51.388-58.493-74.646-45.061-23.261 13.426-16.041 48.581 1.701 87.176 16.942 36.857 28.181 98.565 28.179 155.982C193.68 584.284 141.082 729.473 0 729.457c-141.082.016-193.68-145.173-193.681-202.587-.002-57.417 11.237-119.125 28.179-155.982 17.742-38.595 24.962-73.75 1.701-87.176-23.258-13.432-50.094 10.399-74.646 45.061-23.448 33.1-71.269 73.689-120.995 102.395-49.724 28.706-201.759 55.748-272.286-66.44z" fill="#fc0"/><path d="M-484.578 279.772c14.779 25.593 54.964 51.801 124.409 11.702 69.452-40.095 94.969-78.486 141.787-114.498 20.834-16.031 69.786-47.553 125.194-15.57 55.403 31.993 52.58 90.147 49.113 116.207-7.778 58.55-28.267 99.844-28.264 180.04-.005 80.189 42.785 101.888 72.339 101.89 29.554-.002 72.344-21.701 72.339-101.89.003-80.196-20.486-121.49-28.264-180.04-3.467-26.06-6.29-84.214 49.113-116.207 55.408-31.983 104.36-.461 125.194 15.57 46.818 36.012 72.335 74.403 141.787 114.498 69.445 40.099 109.63 13.891 124.409-11.702 14.775-25.597 17.379-73.502-52.071-113.593-69.449-40.1-115.454-43.003-170.05-65.542C238.156 90.609 186.382 63.977 186.375 0c.007-63.977 51.781-90.61 76.082-100.637 54.596-22.539 100.601-25.442 170.05-65.542 69.45-40.091 66.846-87.996 52.071-113.593-14.779-25.593-54.964-51.801-124.409-11.702-69.452 40.095-94.969 78.486-141.787 114.498-20.834 16.031-69.786 47.553-125.194 15.57-55.403-31.993-52.58-90.147-49.113-116.207 7.778-58.55 28.267-99.844 28.264-180.04.005-80.189-42.785-101.888-72.339-101.89-29.554.002-72.344 21.701-72.339 101.89-.003 80.196 20.486 121.49 28.264 180.04 3.467 26.06 6.29 84.214-49.113 116.207-55.408 31.983-104.36.461-125.194-15.57-46.818-36.012-72.335-74.403-141.787-114.498-69.445-40.099-109.63-13.891-124.409 11.702-14.775 25.597-17.379 73.502 52.071 113.593 69.449 40.1 115.454 43.003 170.05 65.542C-238.156-90.609-186.382-63.977-186.375 0c-.007 63.977-51.781 90.61-76.082 100.637-54.596 22.539-100.601 25.442-170.05 65.542-69.45 40.091-66.846 87.996-52.071 113.593z" fill="#fff"/><circle r="123" fill="#fc0"/></g></svg>

<?xml version="1.0" encoding="UTF-8" standalone="no"?>
<svg xmlns="http://www.w3.org/2000/svg" width="1400" height="1000">
<rect width="1400" height="1000" style="fill:#942b9d"/>
<g transform="translate(700,500) scale(0.3333333,0.3333333)">
<path style="fill:#fff" d="M-842.178,486.231 C-842.178,486.231-761.316,450.069-621.16,516.543 -481.014,583.017-413.644,587.894-302.306,523.61 -302.31,652.173-264.4,708.08-136.758,796.212 -9.1132,884.354,0,972.463,0,972.463 0,972.463,9.1132,884.353,136.758,796.212 264.4,708.08,302.31,652.173,302.306,523.61 413.644,587.894,481.014,583.017,621.16,516.543 761.317,450.068,842.178,486.231,842.178,486.231 842.178,486.231,770.429,434.284,757.919,279.67 745.415,125.062,715.953,64.2785,604.612,0 715.953-64.2785,745.415-125.062,757.919-279.67 770.429-434.284,842.178-486.231,842.178-486.231 842.178-486.231,761.316-450.069,621.16-516.543 481.014-583.017,413.644-587.894,302.306-523.61 302.31-652.173,264.4-708.08,136.758-796.212 9.1132-884.354,0-972.463,0-972.463 0-972.463-9.1132-884.354-136.758-796.212 -264.4-708.08-302.31-652.173-302.306-523.61 -413.644-587.894-481.014-583.017-621.16-516.543 -761.317-450.068-842.178-486.231-842.178-486.231 -842.178-486.231-770.429-434.284-757.919-279.67 -745.415-125.062-715.953-64.2785-604.612,0 -715.953,64.2785-745.415,125.062-757.919,279.67 -770.429,434.284-842.178,486.231-842.178,486.231Z"/>
<path style="fill:#fc0" d="M-631.728,364.728 C-702.282,242.555-602.845,124.411-553.123,95.7018 -503.399,66.9912-444.339,45.8716-403.948,42.1151 -361.654,38.1836-327.599,26.8579-327.602,0 -327.599-26.8579-361.654-38.1836-403.948-42.1151 -444.339-45.8716-503.399-66.9912-553.123-95.7018 -602.845-124.411-702.282-242.555-631.728-364.728 -561.201-486.916-409.166-459.874-359.442-431.168 -309.716-402.462-261.895-361.873-238.447-328.773 -213.895-294.111-187.059-270.28-163.801-283.712 -140.54-297.138-147.76-332.293-165.502-370.888 -182.444-407.745-193.683-469.453-193.681-526.87 -193.68-584.284-141.082-729.473,0-729.457 141.082-729.473,193.68-584.284,193.681-526.87 193.683-469.453,182.444-407.745,165.502-370.888 147.76-332.293,140.54-297.138,163.801-283.712 187.059-270.28,213.895-294.111,238.447-328.773 261.895-361.873,309.716-402.462,359.442-431.168 409.166-459.874,561.201-486.916,631.728-364.728 702.282-242.555,602.845-124.411,553.123-95.7018 503.399-66.9912,444.339-45.8716,403.948-42.1151 361.654-38.1836,327.599-26.8579,327.602,0 327.599,26.8579,361.654,38.1836,403.948,42.1151 444.339,45.8716,503.399,66.9912,553.123,95.7018 602.845,124.411,702.282,242.555,631.728,364.728 561.201,486.916,409.166,459.874,359.442,431.168 309.716,402.462,261.895,361.873,238.447,328.773 213.895,294.111,187.059,270.28,163.801,283.712 140.54,297.138,147.76,332.293,165.502,370.888 182.444,407.745,193.683,469.453,193.681,526.87 193.68,584.284,141.082,729.473,0,729.457 -141.082,729.473-193.68,584.284-193.681,526.87 -193.683,469.453-182.444,407.745-165.502,370.888 -147.76,332.293-140.54,297.138-163.801,283.712 -187.059,270.28-213.895,294.111-238.447,328.773 -261.895,361.873-309.716,402.462-359.442,431.168 -409.166,459.874-561.201,486.916-631.728,364.728Z"/>
<path style="fill:#fff" d="M-484.578,279.772 C-469.799,305.365-429.614,331.573-360.169,291.474 -290.717,251.379-265.2,212.988-218.382,176.976 -197.548,160.945-148.596,129.423-93.188,161.406 -37.7852,193.399-40.608,251.553-44.0747,277.613 -51.853,336.163-72.3418,377.457-72.339,457.653 -72.3438,537.842-29.5541,559.541,0,559.543 29.5543,559.541,72.3438,537.842,72.339,457.653 72.3418,377.457,51.853,336.163,44.0747,277.613 40.608,251.553,37.7852,193.399,93.188,161.406 148.596,129.423,197.548,160.945,218.382,176.976 265.2,212.988,290.717,251.379,360.169,291.474 429.614,331.573,469.799,305.365,484.578,279.772 499.353,254.175,501.957,206.27,432.507,166.179 363.058,126.079,317.053,123.176,262.457,100.637 238.156,90.6092,186.382,63.977,186.375,0 186.382-63.977,238.156-90.6092,262.457-100.637 317.053-123.176,363.058-126.079,432.507-166.179 501.957-206.27,499.353-254.175,484.578-279.772 469.799-305.365,429.614-331.573,360.169-291.474 290.717-251.379,265.2-212.988,218.382-176.976 197.548-160.945,148.596-129.423,93.188-161.406 37.7852-193.399,40.608-251.553,44.0747-277.613 51.853-336.163,72.3418-377.457,72.339-457.653 72.3438-537.842,29.5541-559.541,0-559.543 -29.5543-559.541-72.3438-537.842-72.339-457.653 -72.3418-377.457-51.853-336.163-44.0747-277.613 -40.608-251.553-37.7852-193.399-93.188-161.406 -148.596-129.423-197.548-160.945-218.382-176.976 -265.2-212.988-290.717-251.379-360.169-291.474 -429.614-331.573-469.799-305.365-484.578-279.772 -499.353-254.175-501.957-206.27-432.507-166.179 -363.058-126.079-317.053-123.176-262.457-100.637 -238.156-90.6092-186.382-63.977-186.375,0 -186.382,63.977-238.156,90.6092-262.457,100.637 -317.053,123.176-363.058,126.079-432.507,166.179 -501.957,206.27-499.353,254.175-484.578,279.772Z"/>
<circle cx="0" cy="0" r="123" style="fill:#fc0"/></g></svg>
